report_00007_2020-12-11T15:55:29.892Z/largest-contentful-paint/comparison/sorted/1_vs_2.svg

<svg width="640" height="500" xmlns="http://www.w3.org/2000/svg" xmlns:xlink="http://www.w3.org/1999/xlink"><path fill="#fff" d="M0 0h640v500H0z"/><defs><path id="d" stroke-width=".222" stroke="currentColor" d="M-1-1h2v2h-2z"/><path id="b" stroke-width=".222" stroke="currentColor" d="M0-1.33l-1.33 2h2.66z"/><path id="f" stroke-width=".222" stroke="currentColor" d="M0 1.33L1.265.411.782-1.067l-1.564-.009-.483 1.487z"/><use xlink:href="#b" id="c" stroke="currentColor" transform="rotate(180)"/><use xlink:href="#d" id="e" stroke="currentColor" transform="rotate(45)"/><circle id="a" stroke-width=".222" stroke="currentColor" cx="0" cy="0" r="1"/></defs><g fill="none" color="#000" stroke="currentColor"><path stroke="#000" d="M70.5 372.9h9m535.5 0h-9"/><text transform="translate(62.2 376.8)" stroke="none" fill="#000" font-family="Arial" font-size="12" text-anchor="end"><tspan>12000</tspan></text></g><g fill="none" color="#000" stroke="currentColor"><path stroke="#000" d="M70.5 305.3h9m535.5 0h-9"/><text transform="translate(62.2 309.2)" stroke="none" fill="#000" font-family="Arial" font-size="12" text-anchor="end"><tspan>13000</tspan></text></g><g fill="none" color="#000" stroke="currentColor"><path stroke="#000" d="M70.5 237.6h9m535.5 0h-9"/><text transform="translate(62.2 241.5)" stroke="none" fill="#000" font-family="Arial" font-size="12" text-anchor="end"><tspan>14000</tspan></text></g><g fill="none" color="#000" stroke="currentColor"><path stroke="#000" d="M70.5 170h9m535.5 0h-9"/><text transform="translate(62.2 173.9)" stroke="none" fill="#000" font-family="Arial" font-size="12" text-anchor="end"><tspan>15000</tspan></text></g><g fill="none" color="#000" stroke="currentColor"><path stroke="#000" d="M70.5 102.3h9m535.5 0h-9"/><text transform="translate(62.2 106.2)" stroke="none" fill="#000" font-family="Arial" font-size="12" text-anchor="end"><tspan>16000</tspan></text></g><g fill="none" color="#000" stroke="currentColor"><path stroke="#000" d="M70.5 34.6h9m535.5 0h-9"/><text transform="translate(62.2 38.5)" stroke="none" fill="#000" font-family="Arial" font-size="12" text-anchor="end"><tspan>17000</tspan></text></g><g fill="none" color="#000" stroke="currentColor"><path stroke="#000" d="M70.5 428v-9m0-400.9v9"/><text transform="translate(70.5 449.9)" stroke="none" fill="#000" font-family="Arial" font-size="12" text-anchor="middle"><tspan>0</tspan></text></g><g fill="none" color="#000" stroke="currentColor"><path stroke="#000" d="M125.5 428v-9m0-400.9v9"/><text transform="translate(125.5 449.9)" stroke="none" fill="#000" font-family="Arial" font-size="12" text-anchor="middle"><tspan>10</tspan></text></g><g fill="none" color="#000" stroke="currentColor"><path stroke="#000" d="M180.5 428v-9m0-400.9v9"/><text transform="translate(180.5 449.9)" stroke="none" fill="#000" font-family="Arial" font-size="12" text-anchor="middle"><tspan>20</tspan></text></g><g fill="none" color="#000" stroke="currentColor"><path stroke="#000" d="M235.5 428v-9m0-400.9v9"/><text transform="translate(235.5 449.9)" stroke="none" fill="#000" font-family="Arial" font-size="12" text-anchor="middle"><tspan>30</tspan></text></g><g fill="none" color="#000" stroke="currentColor"><path stroke="#000" d="M290.5 428v-9m0-400.9v9"/><text transform="translate(290.5 449.9)" stroke="none" fill="#000" font-family="Arial" font-size="12" text-anchor="middle"><tspan>40</tspan></text></g><g fill="none" color="#000" stroke="currentColor"><path stroke="#000" d="M345.5 428v-9m0-400.9v9"/><text transform="translate(345.5 449.9)" stroke="none" fill="#000" font-family="Arial" font-size="12" text-anchor="middle"><tspan>50</tspan></text></g><g fill="none" color="#000" stroke="currentColor"><path stroke="#000" d="M400.5 428v-9m0-400.9v9"/><text transform="translate(400.5 449.9)" stroke="none" fill="#000" font-family="Arial" font-size="12" text-anchor="middle"><tspan>60</tspan></text></g><g fill="none" color="#000" stroke="currentColor"><path stroke="#000" d="M455.5 428v-9m0-400.9v9"/><text transform="translate(455.5 449.9)" stroke="none" fill="#000" font-family="Arial" font-size="12" text-anchor="middle"><tspan>70</tspan></text></g><g fill="none" color="#000" stroke="currentColor"><path stroke="#000" d="M510.5 428v-9m0-400.9v9"/><text transform="translate(510.5 449.9)" stroke="none" fill="#000" font-family="Arial" font-size="12" text-anchor="middle"><tspan>80</tspan></text></g><g fill="none" color="#000" stroke="currentColor"><path stroke="#000" d="M565.5 428v-9m0-400.9v9"/><text transform="translate(565.5 449.9)" stroke="none" fill="#000" font-family="Arial" font-size="12" text-anchor="middle"><tspan>90</tspan></text></g><path stroke="#000" d="M70.5 18.1V428H615V18.1H70.5z" fill="none" color="#000"/><text transform="translate(283.9 467.9)" stroke="none" fill="#000" font-family="Arial" font-size="12" text-anchor="end" color="#000"><tspan>pages</tspan></text><path stroke="#9400D3" d="M292.2 464h42.2M70.5 334.4l5.5-1.9 5.5-54.3 5.5-.6 5.5-1.2 5.5-.8 5.5-.1h5.5l5.5-.2 5.5-.3h11l5.5-.2 5.5-.1 5.5-.1h11l5.5-.1h16.5l5.5-.1h5.5l5.5-.1 5.5-.1 5.5-.1h5.5l5.5-.2h5.5l5.5-.2h5.5l5.5-.1h5.5l5.5-.1h5.5l5.5-.3 5.5-.1h22l5.5-.1h5.5l5.5-.1 5.5-.1h11l5.5-.2 5.5-.3 5.5-.2 5.5-.1 5.5-1.1 5.5-.5h5.5l5.5-.2h5.5l5.5-.1 5.5-.1 5.5-.3 5.5-.1 5.5-.1h5.5l5.5-.2 5.5-.2 5.5-.3h5.5l5.5-.1 5.5-.1h11l5.5-.1 5.5-.1h5.5l5.5-.6 5.5-.4 5.5-.1 5.5-.1 5.5-.1h5.5l5.5-.2 5.5-.3 5.5-.4 5.5-.3 5.5-1.1 5.5-.3h11l5.5-.5 5.5-.2 5.5-.1h16.5l5.5-1.4h5.5l5.5-2.8 5.5-.2 5.5-.1 5.5-2.7L615 26" fill="none" color="#000"/><text transform="translate(283.9 485.9)" stroke="none" fill="#000" font-family="Arial" font-size="12" text-anchor="end" color="#000"><tspan>pages+cached</tspan></text><path stroke="#009E73" d="M292.2 482h42.2M70.5 420.1l5.5-67.3 5.5-166.1 5.5-.9 5.5-.5H98l5.5-.2h5.5l5.5-.3 5.5-.1h5.5l5.5-.3 5.5-.1h5.5l5.5-.4 5.5-.1h11l5.5-.2h5.5l5.5-.6 5.5-2.6 5.5-.1h5.5l5.5-.6 5.5-.1h11l5.5-.3 5.5-.2 5.5-.1 5.5-.1 5.5-.2h5.5l5.5-.1 5.5-.2h16.5l5.5-.1 5.5-.1 5.5-7.6 5.5-50.5 5.5-.8h5.5l5.5-.3h16.5l5.5-.1h5.5l5.5-.1 5.5-.1 5.5-.1 5.5-.1h5.5l5.5-.1h33l5.5-.1 5.5-.1h5.5l5.5-.2h11l5.5-.1h5.5l5.5-.1h22l5.5-.1h5.5l5.5-.1h5.5l5.5-.1h11l5.5-.1h5.5l5.5-.1 5.5-.1h5.5l5.5-.1 5.5-.3h5.5l5.5-.2 5.5-.1 5.5-.2h5.5l5.5-.1 5.5-.1 5.5-.1 5.5-3.1h5.5" fill="none" color="#000"/><text transform="translate(483.8 467.9)" stroke="none" fill="#000" font-family="Arial" font-size="12" text-anchor="end" color="#000"><tspan>score p10=2500</tspan></text><path stroke="#56B4E9" d="M492.1 464h42.2" fill="none" color="#000"/><g><text transform="translate(483.8 485.9)" stroke="none" fill="#000" font-family="Arial" font-size="12" text-anchor="end" color="#000"><tspan>score median=4000</tspan></text><path stroke="#E69F00" d="M492.1 482h42.2" fill="none" color="#000"/></g><g fill="none" color="#000" stroke="currentColor"><path stroke="#000" d="M70.5 18.1V428H615V18.1H70.5z"/></g></svg>

<?xml version="1.0" encoding="utf-8"  standalone="no"?>
<svg 
 width="640" height="500"
 viewBox="0 0 640 500"
 xmlns="http://www.w3.org/2000/svg"
 xmlns:xlink="http://www.w3.org/1999/xlink"
>

<title>Gnuplot</title>
<desc>Produced by GNUPLOT 5.4 patchlevel 0 </desc>

<g id="gnuplot_canvas">

<rect x="0" y="0" width="640" height="500" fill="#ffffff"/>
<defs>

	<circle id='gpDot' r='0.5' stroke-width='0.5' stroke='currentColor'/>
	<path id='gpPt0' stroke-width='0.222' stroke='currentColor' d='M-1,0 h2 M0,-1 v2'/>
	<path id='gpPt1' stroke-width='0.222' stroke='currentColor' d='M-1,-1 L1,1 M1,-1 L-1,1'/>
	<path id='gpPt2' stroke-width='0.222' stroke='currentColor' d='M-1,0 L1,0 M0,-1 L0,1 M-1,-1 L1,1 M-1,1 L1,-1'/>
	<rect id='gpPt3' stroke-width='0.222' stroke='currentColor' x='-1' y='-1' width='2' height='2'/>
	<rect id='gpPt4' stroke-width='0.222' stroke='currentColor' fill='currentColor' x='-1' y='-1' width='2' height='2'/>
	<circle id='gpPt5' stroke-width='0.222' stroke='currentColor' cx='0' cy='0' r='1'/>
	<use xlink:href='#gpPt5' id='gpPt6' fill='currentColor' stroke='none'/>
	<path id='gpPt7' stroke-width='0.222' stroke='currentColor' d='M0,-1.33 L-1.33,0.67 L1.33,0.67 z'/>
	<use xlink:href='#gpPt7' id='gpPt8' fill='currentColor' stroke='none'/>
	<use xlink:href='#gpPt7' id='gpPt9' stroke='currentColor' transform='rotate(180)'/>
	<use xlink:href='#gpPt9' id='gpPt10' fill='currentColor' stroke='none'/>
	<use xlink:href='#gpPt3' id='gpPt11' stroke='currentColor' transform='rotate(45)'/>
	<use xlink:href='#gpPt11' id='gpPt12' fill='currentColor' stroke='none'/>
	<path id='gpPt13' stroke-width='0.222' stroke='currentColor' d='M0,1.330 L1.265,0.411 L0.782,-1.067 L-0.782,-1.076 L-1.265,0.411 z'/>
	<use xlink:href='#gpPt13' id='gpPt14' fill='currentColor' stroke='none'/>
	<filter id='textbox' filterUnits='objectBoundingBox' x='0' y='0' height='1' width='1'>
	  <feFlood flood-color='#FFFFFF' flood-opacity='1' result='bgnd'/>
	  <feComposite in='SourceGraphic' in2='bgnd' operator='atop'/>
	</filter>
	<filter id='greybox' filterUnits='objectBoundingBox' x='0' y='0' height='1' width='1'>
	  <feFlood flood-color='lightgrey' flood-opacity='1' result='grey'/>
	  <feComposite in='SourceGraphic' in2='grey' operator='atop'/>
	</filter>
</defs>
<g fill="none" color="#FFFFFF" stroke="black" stroke-width="1.00" stroke-linecap="butt" stroke-linejoin="miter">
</g>
<g fill="none" color="black" stroke="currentColor" stroke-width="1.00" stroke-linecap="butt" stroke-linejoin="miter">
	<path stroke='black'  d='M70.5,372.9 L79.5,372.9 M615.0,372.9 L606.0,372.9  '/>	<g transform="translate(62.2,376.8)" stroke="none" fill="black" font-family="Arial" font-size="12.00"  text-anchor="end">
		<text><tspan font-family="Arial" > 12000</tspan></text>
	</g>
</g>
<g fill="none" color="black" stroke="currentColor" stroke-width="1.00" stroke-linecap="butt" stroke-linejoin="miter">
	<path stroke='black'  d='M70.5,305.3 L79.5,305.3 M615.0,305.3 L606.0,305.3  '/>	<g transform="translate(62.2,309.2)" stroke="none" fill="black" font-family="Arial" font-size="12.00"  text-anchor="end">
		<text><tspan font-family="Arial" > 13000</tspan></text>
	</g>
</g>
<g fill="none" color="black" stroke="currentColor" stroke-width="1.00" stroke-linecap="butt" stroke-linejoin="miter">
	<path stroke='black'  d='M70.5,237.6 L79.5,237.6 M615.0,237.6 L606.0,237.6  '/>	<g transform="translate(62.2,241.5)" stroke="none" fill="black" font-family="Arial" font-size="12.00"  text-anchor="end">
		<text><tspan font-family="Arial" > 14000</tspan></text>
	</g>
</g>
<g fill="none" color="black" stroke="currentColor" stroke-width="1.00" stroke-linecap="butt" stroke-linejoin="miter">
	<path stroke='black'  d='M70.5,170.0 L79.5,170.0 M615.0,170.0 L606.0,170.0  '/>	<g transform="translate(62.2,173.9)" stroke="none" fill="black" font-family="Arial" font-size="12.00"  text-anchor="end">
		<text><tspan font-family="Arial" > 15000</tspan></text>
	</g>
</g>
<g fill="none" color="black" stroke="currentColor" stroke-width="1.00" stroke-linecap="butt" stroke-linejoin="miter">
	<path stroke='black'  d='M70.5,102.3 L79.5,102.3 M615.0,102.3 L606.0,102.3  '/>	<g transform="translate(62.2,106.2)" stroke="none" fill="black" font-family="Arial" font-size="12.00"  text-anchor="end">
		<text><tspan font-family="Arial" > 16000</tspan></text>
	</g>
</g>
<g fill="none" color="black" stroke="currentColor" stroke-width="1.00" stroke-linecap="butt" stroke-linejoin="miter">
	<path stroke='black'  d='M70.5,34.6 L79.5,34.6 M615.0,34.6 L606.0,34.6  '/>	<g transform="translate(62.2,38.5)" stroke="none" fill="black" font-family="Arial" font-size="12.00"  text-anchor="end">
		<text><tspan font-family="Arial" > 17000</tspan></text>
	</g>
</g>
<g fill="none" color="black" stroke="currentColor" stroke-width="1.00" stroke-linecap="butt" stroke-linejoin="miter">
	<path stroke='black'  d='M70.5,428.0 L70.5,419.0 M70.5,18.1 L70.5,27.1  '/>	<g transform="translate(70.5,449.9)" stroke="none" fill="black" font-family="Arial" font-size="12.00"  text-anchor="middle">
		<text><tspan font-family="Arial" > 0</tspan></text>
	</g>
</g>
<g fill="none" color="black" stroke="currentColor" stroke-width="1.00" stroke-linecap="butt" stroke-linejoin="miter">
	<path stroke='black'  d='M125.5,428.0 L125.5,419.0 M125.5,18.1 L125.5,27.1  '/>	<g transform="translate(125.5,449.9)" stroke="none" fill="black" font-family="Arial" font-size="12.00"  text-anchor="middle">
		<text><tspan font-family="Arial" > 10</tspan></text>
	</g>
</g>
<g fill="none" color="black" stroke="currentColor" stroke-width="1.00" stroke-linecap="butt" stroke-linejoin="miter">
	<path stroke='black'  d='M180.5,428.0 L180.5,419.0 M180.5,18.1 L180.5,27.1  '/>	<g transform="translate(180.5,449.9)" stroke="none" fill="black" font-family="Arial" font-size="12.00"  text-anchor="middle">
		<text><tspan font-family="Arial" > 20</tspan></text>
	</g>
</g>
<g fill="none" color="black" stroke="currentColor" stroke-width="1.00" stroke-linecap="butt" stroke-linejoin="miter">
	<path stroke='black'  d='M235.5,428.0 L235.5,419.0 M235.5,18.1 L235.5,27.1  '/>	<g transform="translate(235.5,449.9)" stroke="none" fill="black" font-family="Arial" font-size="12.00"  text-anchor="middle">
		<text><tspan font-family="Arial" > 30</tspan></text>
	</g>
</g>
<g fill="none" color="black" stroke="currentColor" stroke-width="1.00" stroke-linecap="butt" stroke-linejoin="miter">
	<path stroke='black'  d='M290.5,428.0 L290.5,419.0 M290.5,18.1 L290.5,27.1  '/>	<g transform="translate(290.5,449.9)" stroke="none" fill="black" font-family="Arial" font-size="12.00"  text-anchor="middle">
		<text><tspan font-family="Arial" > 40</tspan></text>
	</g>
</g>
<g fill="none" color="black" stroke="currentColor" stroke-width="1.00" stroke-linecap="butt" stroke-linejoin="miter">
	<path stroke='black'  d='M345.5,428.0 L345.5,419.0 M345.5,18.1 L345.5,27.1  '/>	<g transform="translate(345.5,449.9)" stroke="none" fill="black" font-family="Arial" font-size="12.00"  text-anchor="middle">
		<text><tspan font-family="Arial" > 50</tspan></text>
	</g>
</g>
<g fill="none" color="black" stroke="currentColor" stroke-width="1.00" stroke-linecap="butt" stroke-linejoin="miter">
	<path stroke='black'  d='M400.5,428.0 L400.5,419.0 M400.5,18.1 L400.5,27.1  '/>	<g transform="translate(400.5,449.9)" stroke="none" fill="black" font-family="Arial" font-size="12.00"  text-anchor="middle">
		<text><tspan font-family="Arial" > 60</tspan></text>
	</g>
</g>
<g fill="none" color="black" stroke="currentColor" stroke-width="1.00" stroke-linecap="butt" stroke-linejoin="miter">
	<path stroke='black'  d='M455.5,428.0 L455.5,419.0 M455.5,18.1 L455.5,27.1  '/>	<g transform="translate(455.5,449.9)" stroke="none" fill="black" font-family="Arial" font-size="12.00"  text-anchor="middle">
		<text><tspan font-family="Arial" > 70</tspan></text>
	</g>
</g>
<g fill="none" color="black" stroke="currentColor" stroke-width="1.00" stroke-linecap="butt" stroke-linejoin="miter">
	<path stroke='black'  d='M510.5,428.0 L510.5,419.0 M510.5,18.1 L510.5,27.1  '/>	<g transform="translate(510.5,449.9)" stroke="none" fill="black" font-family="Arial" font-size="12.00"  text-anchor="middle">
		<text><tspan font-family="Arial" > 80</tspan></text>
	</g>
</g>
<g fill="none" color="black" stroke="currentColor" stroke-width="1.00" stroke-linecap="butt" stroke-linejoin="miter">
	<path stroke='black'  d='M565.5,428.0 L565.5,419.0 M565.5,18.1 L565.5,27.1  '/>	<g transform="translate(565.5,449.9)" stroke="none" fill="black" font-family="Arial" font-size="12.00"  text-anchor="middle">
		<text><tspan font-family="Arial" > 90</tspan></text>
	</g>
</g>
<g fill="none" color="black" stroke="currentColor" stroke-width="1.00" stroke-linecap="butt" stroke-linejoin="miter">
</g>
<g fill="none" color="black" stroke="currentColor" stroke-width="1.00" stroke-linecap="butt" stroke-linejoin="miter">
	<path stroke='black'  d='M70.5,18.1 L70.5,428.0 L615.0,428.0 L615.0,18.1 L70.5,18.1 Z  '/></g>
<g fill="none" color="black" stroke="currentColor" stroke-width="1.00" stroke-linecap="butt" stroke-linejoin="miter">
</g>
	<g id="gnuplot_plot_1" ><title>pages</title>
<g fill="none" color="black" stroke="currentColor" stroke-width="1.00" stroke-linecap="butt" stroke-linejoin="miter">
	<g transform="translate(283.9,467.9)" stroke="none" fill="black" font-family="Arial" font-size="12.00"  text-anchor="end">
		<text><tspan font-family="Arial" >pages</tspan></text>
	</g>
</g>
<g fill="none" color="black" stroke="currentColor" stroke-width="1.00" stroke-linecap="butt" stroke-linejoin="miter">
	<path stroke='rgb(148,   0, 211)'  d='M292.2,464.0 L334.4,464.0 M70.5,334.4 L76.0,332.5 L81.5,278.2 L87.0,277.6 L92.5,276.4 L98.0,275.6
		L103.5,275.5 L109.0,275.5 L114.5,275.3 L120.0,275.0 L125.5,275.0 L131.0,275.0 L136.5,274.8 L142.0,274.7
		L147.5,274.6 L153.0,274.6 L158.5,274.6 L164.0,274.5 L169.5,274.5 L175.0,274.5 L180.5,274.5 L186.0,274.4
		L191.5,274.4 L197.0,274.3 L202.5,274.2 L208.0,274.1 L213.5,274.1 L219.0,273.9 L224.5,273.9 L230.0,273.7
		L235.5,273.7 L241.0,273.6 L246.5,273.6 L252.0,273.5 L257.5,273.5 L263.0,273.2 L268.5,273.1 L274.0,273.1
		L279.5,273.1 L285.0,273.1 L290.5,273.1 L296.0,273.0 L301.5,273.0 L307.0,272.9 L312.5,272.8 L318.0,272.8
		L323.5,272.8 L329.0,272.6 L334.5,272.3 L340.0,272.1 L345.5,272.0 L351.0,270.9 L356.5,270.4 L362.0,270.4
		L367.5,270.2 L373.0,270.2 L378.5,270.1 L384.0,270.0 L389.5,269.7 L395.0,269.6 L400.5,269.5 L406.0,269.5
		L411.5,269.3 L417.0,269.1 L422.5,268.8 L428.0,268.8 L433.5,268.7 L439.0,268.6 L444.5,268.6 L450.0,268.6
		L455.5,268.5 L461.0,268.4 L466.5,268.4 L472.0,267.8 L477.5,267.4 L483.0,267.3 L488.5,267.2 L494.0,267.1
		L499.5,267.1 L505.0,266.9 L510.5,266.6 L516.0,266.2 L521.5,265.9 L527.0,264.8 L532.5,264.5 L538.0,264.5
		L543.5,264.5 L549.0,264.0 L554.5,263.8 L560.0,263.7 L565.5,263.7 L571.0,263.7 L576.5,263.7 L582.0,262.3
		L587.5,262.3 L593.0,259.5 L598.5,259.3 L604.0,259.2 L609.5,256.5 L615.0,26.0  '/></g>
	</g>
	<g id="gnuplot_plot_2" ><title>pages+cached</title>
<g fill="none" color="black" stroke="currentColor" stroke-width="1.00" stroke-linecap="butt" stroke-linejoin="miter">
	<g transform="translate(283.9,485.9)" stroke="none" fill="black" font-family="Arial" font-size="12.00"  text-anchor="end">
		<text><tspan font-family="Arial" >pages+cached</tspan></text>
	</g>
</g>
<g fill="none" color="black" stroke="currentColor" stroke-width="1.00" stroke-linecap="butt" stroke-linejoin="miter">
	<path stroke='rgb(  0, 158, 115)'  d='M292.2,482.0 L334.4,482.0 M70.5,420.1 L76.0,352.8 L81.5,186.7 L87.0,185.8 L92.5,185.3 L98.0,185.3
		L103.5,185.1 L109.0,185.1 L114.5,184.8 L120.0,184.7 L125.5,184.7 L131.0,184.4 L136.5,184.3 L142.0,184.3
		L147.5,183.9 L153.0,183.8 L158.5,183.8 L164.0,183.8 L169.5,183.6 L175.0,183.6 L180.5,183.0 L186.0,180.4
		L191.5,180.3 L197.0,180.3 L202.5,179.7 L208.0,179.6 L213.5,179.6 L219.0,179.6 L224.5,179.3 L230.0,179.1
		L235.5,179.0 L241.0,178.9 L246.5,178.7 L252.0,178.7 L257.5,178.6 L263.0,178.4 L268.5,178.4 L274.0,178.4
		L279.5,178.4 L285.0,178.3 L290.5,178.2 L296.0,170.6 L301.5,120.1 L307.0,119.3 L312.5,119.3 L318.0,119.0
		L323.5,119.0 L329.0,119.0 L334.5,119.0 L340.0,118.9 L345.5,118.9 L351.0,118.8 L356.5,118.7 L362.0,118.6
		L367.5,118.5 L373.0,118.5 L378.5,118.4 L384.0,118.4 L389.5,118.4 L395.0,118.4 L400.5,118.4 L406.0,118.4
		L411.5,118.4 L417.0,118.3 L422.5,118.2 L428.0,118.2 L433.5,118.0 L439.0,118.0 L444.5,118.0 L450.0,117.9
		L455.5,117.9 L461.0,117.8 L466.5,117.8 L472.0,117.8 L477.5,117.8 L483.0,117.8 L488.5,117.7 L494.0,117.7
		L499.5,117.6 L505.0,117.6 L510.5,117.5 L516.0,117.5 L521.5,117.5 L527.0,117.4 L532.5,117.4 L538.0,117.3
		L543.5,117.2 L549.0,117.2 L554.5,117.1 L560.0,116.8 L565.5,116.8 L571.0,116.6 L576.5,116.5 L582.0,116.3
		L587.5,116.3 L593.0,116.2 L598.5,116.1 L604.0,116.0 L609.5,112.9 L615.0,112.9  '/></g>
	</g>
	<g id="gnuplot_plot_3" ><title>score p10=2500</title>
<g fill="none" color="black" stroke="currentColor" stroke-width="1.00" stroke-linecap="butt" stroke-linejoin="miter">
	<g transform="translate(483.8,467.9)" stroke="none" fill="black" font-family="Arial" font-size="12.00"  text-anchor="end">
		<text><tspan font-family="Arial" >score p10=2500</tspan></text>
	</g>
</g>
<g fill="none" color="black" stroke="currentColor" stroke-width="1.00" stroke-linecap="butt" stroke-linejoin="miter">
	<path stroke='rgb( 86, 180, 233)'  d='M492.1,464.0 L534.3,464.0  '/></g>
	</g>
	<g id="gnuplot_plot_4" ><title>score median=4000</title>
<g fill="none" color="black" stroke="currentColor" stroke-width="1.00" stroke-linecap="butt" stroke-linejoin="miter">
	<g transform="translate(483.8,485.9)" stroke="none" fill="black" font-family="Arial" font-size="12.00"  text-anchor="end">
		<text><tspan font-family="Arial" >score median=4000</tspan></text>
	</g>
</g>
<g fill="none" color="black" stroke="currentColor" stroke-width="1.00" stroke-linecap="butt" stroke-linejoin="miter">
	<path stroke='rgb(230, 159,   0)'  d='M492.1,482.0 L534.3,482.0  '/></g>
	</g>
<g fill="none" color="#FFFFFF" stroke="rgb(230, 159,   0)" stroke-width="2.00" stroke-linecap="butt" stroke-linejoin="miter">
</g>
<g fill="none" color="black" stroke="currentColor" stroke-width="2.00" stroke-linecap="butt" stroke-linejoin="miter">
</g>
<g fill="none" color="black" stroke="black" stroke-width="1.00" stroke-linecap="butt" stroke-linejoin="miter">
</g>
<g fill="none" color="black" stroke="currentColor" stroke-width="1.00" stroke-linecap="butt" stroke-linejoin="miter">
	<path stroke='black'  d='M70.5,18.1 L70.5,428.0 L615.0,428.0 L615.0,18.1 L70.5,18.1 Z  '/></g>
<g fill="none" color="black" stroke="currentColor" stroke-width="1.00" stroke-linecap="butt" stroke-linejoin="miter">
</g>
</g>
</svg>
